images/themes/default/mIconSnappingSelf.svg

<svg height="24" viewBox="0 0 24 24" width="24" xmlns="http://www.w3.org/2000/svg"><g stroke-linecap="round" transform="translate(.040858 -7.931636)"><path d="m20.566062 23.218131-16.0783487-8.240646 4.593988 12.082787-7.0817013 2.939728" fill="none" stroke="#8cbe8c" stroke-linejoin="round" stroke-width="2"/><ellipse cx="-14.75" cy="14" fill="#322825" rx=".75" ry="2.5" stroke="#fff" stroke-width="2"/><g fill="#bebebe" stroke="#8c8c8c" stroke-width="1.031"><circle cx="8.610297" cy="26.858242" r="2.034729"/><circle cx="4.487713" cy="15.179515" r="2.034729"/></g></g><g transform="matrix(1.2651778 0 0 1.2651778 -4.626524 -.705913)"><g stroke-linecap="round" stroke-width=".35534"><path d="m19.461512 9.2175166-2.259422 1.3635194 2.663548 1.925751z" fill="#505050" stroke="#505050"/><path d="m15.362026 1.9819405-2.461867 1.421359 4.027183 6.9752905 2.461868-1.4213605z" fill="#fce94f" stroke="#8b7617"/><path d="m13.957675 3.3398245 3.79029 6.564978" fill="#fce94f" opacity=".5" stroke="#8b7617"/></g><path d="m19.369733 12.033342-1.990522-1.555422.819374-.473067z" fill="#969696" stroke="#969696" stroke-linecap="square" stroke-width=".236893"/><path d="m14.983453 2.7475915 3.790289 6.564978" fill="#fce94f" opacity=".5" stroke="#8b7617" stroke-linecap="round" stroke-width=".35534"/><path d="m15.192412 1.4694895-2.651241 1.530695.516222.894122 2.65124-1.530695z" fill="#e6e6e6" stroke="#969696" stroke-linecap="round" stroke-width=".236893"/><path d="m19.70856 11.92433-.389277-2.5665105-.819374.473065z" fill="#e6e6e6" stroke="#e6e6e6" stroke-linecap="square" stroke-width=".236893"/></g></svg>

<?xml version="1.0" encoding="UTF-8" standalone="no"?>
<svg
   xmlns:dc="http://purl.org/dc/elements/1.1/"
   xmlns:cc="http://creativecommons.org/ns#"
   xmlns:rdf="http://www.w3.org/1999/02/22-rdf-syntax-ns#"
   xmlns:svg="http://www.w3.org/2000/svg"
   xmlns="http://www.w3.org/2000/svg"
   xmlns:sodipodi="http://sodipodi.sourceforge.net/DTD/sodipodi-0.dtd"
   xmlns:inkscape="http://www.inkscape.org/namespaces/inkscape"
   inkscape:version="1.0 (4035a4fb49, 2020-05-01)"
   sodipodi:docname="mIconSnappingSelf.svg"
   id="svg68"
   version="1.1"
   width="24"
   viewBox="0 0 24 24"
   height="24">
  <metadata
     id="metadata74">
    <rdf:RDF>
      <cc:Work
         rdf:about="">
        <dc:format>image/svg+xml</dc:format>
        <dc:type
           rdf:resource="http://purl.org/dc/dcmitype/StillImage" />
      </cc:Work>
    </rdf:RDF>
  </metadata>
  <defs
     id="defs72" />
  <sodipodi:namedview
     inkscape:current-layer="svg68"
     inkscape:window-maximized="0"
     inkscape:window-y="120"
     inkscape:window-x="351"
     inkscape:cy="15.032678"
     inkscape:cx="21.715662"
     inkscape:zoom="14.849242"
     showgrid="false"
     id="namedview70"
     inkscape:window-height="1163"
     inkscape:window-width="1445"
     inkscape:pageshadow="2"
     inkscape:pageopacity="0"
     guidetolerance="10"
     gridtolerance="10"
     objecttolerance="10"
     borderopacity="1"
     bordercolor="#666666"
     pagecolor="#ffffff" />
  <g
     id="g66"
     transform="translate(0.04085775,-7.9316355)"
     stroke-linecap="round">
    <path
       sodipodi:nodetypes="cccc"
       id="path60"
       stroke-width="2"
       stroke-linejoin="round"
       stroke="#8cbe8c"
       fill="none"
       d="M 20.566062,23.218131 4.4877133,14.977485 9.0817013,27.060272 2,30" />
    <ellipse
       id="ellipse62"
       stroke-width="2"
       stroke="#ffffff"
       ry="2.5"
       rx="0.75"
       fill="#322825"
       cy="14"
       cx="-14.75" />
    <circle
       id="circle64"
       stroke-width="1.031"
       stroke="#8c8c8c"
       r="2.034729"
       fill="#bebebe"
       cy="26.858242"
       cx="8.6102972" />
    <circle
       cx="4.4877133"
       cy="15.179515"
       fill="#bebebe"
       r="2.034729"
       stroke="#8c8c8c"
       stroke-width="1.031"
       id="circle64-5" />
  </g>
  <g
     transform="matrix(1.2651778,0,0,1.2651778,-4.6265242,-0.70591315)"
     id="g1921">
    <path
       sodipodi:nodetypes="cccc"
       id="path1853"
       stroke-width="0.35534"
       stroke-linecap="round"
       stroke="#505050"
       overflow="visible"
       fill="#505050"
       d="m 19.461512,9.2175166 -2.259422,1.3635194 2.663548,1.925751 z" />
    <path
       id="path1855"
       stroke-width="0.35534"
       stroke-linecap="round"
       stroke="#8b7617"
       overflow="visible"
       fill="#fce94f"
       d="M 15.362026,1.9819405 12.900159,3.4032995 16.927342,10.37859 19.38921,8.9572295 15.362026,1.9819405" />
    <path
       id="path1861"
       style="overflow:visible;opacity:0.5;fill:#fce94f;stroke:#8b7617;stroke-width:0.35534;stroke-linecap:round"
       d="m 13.957675,3.3398245 3.79029,6.564978" />
    <path
       id="path1863"
       stroke-width="0.236893"
       stroke-linecap="square"
       stroke="#969696"
       overflow="visible"
       fill="#969696"
       d="M 19.369733,12.033342 17.379211,10.47792 18.198585,10.004853 Z" />
    <path
       id="path1865"
       style="overflow:visible;opacity:0.5;fill:#fce94f;stroke:#8b7617;stroke-width:0.35534;stroke-linecap:round"
       d="m 14.983453,2.7475915 3.790289,6.564978" />
    <path
       id="path1867"
       stroke-width="0.236893"
       stroke-linecap="round"
       stroke="#969696"
       overflow="visible"
       fill="#e6e6e6"
       d="m 15.192412,1.4694895 -2.651241,1.530695 0.516222,0.894122 2.65124,-1.530695 z" />
    <path
       id="path1869"
       stroke-width="0.236893"
       stroke-linecap="square"
       stroke="#e6e6e6"
       overflow="visible"
       fill="#e6e6e6"
       d="M 19.70856,11.92433 19.319283,9.3578195 18.499909,9.8308845 Z" />
  </g>
</svg>
